public/about us/Materials.svg

<?xml version="1.0" encoding="iso-8859-1"?>
<!-- Generator: Adobe Illustrator 19.0.0, SVG Export Plug-In . SVG Version: 6.00 Build 0)  -->
<svg version="1.1" fill="#fff" id="0133" xmlns="http://www.w3.org/2000/svg" xmlns:xlink="http://www.w3.org/1999/xlink" x="0px" y="0px"
	 viewBox="0 0 512 512" style="enable-background:new 0 0 512 512;" xml:space="preserve">
<g>
	<g>
		<g>
			<path d="M392.535,0c-53.589,0-97.604,41.387-101.965,93.867H260.32L47.593,218.573l50.927,12.732l191.616-116.634v19.977
				L121.79,237.124l45.005,11.247l123.341-74.001v19.9l-99.925,59.955l44.868,11.221l55.057-31.462v19.652l-31.13,17.792
				l31.13,7.782v25.933L17.069,467.686v35.029l273.067-157.773v19.712L35.117,512h70.195l184.823-107.315v4.915
				c0,4.821,0.452,9.54,1.101,14.182L139.309,512h253.227c56.465,0,102.4-45.935,102.4-102.4V102.4
				C494.936,45.935,449.001,0,392.535,0z M392.535,494.933c-47.053,0-85.333-38.281-85.333-85.333s38.281-85.333,85.333-85.333
				s85.333,38.281,85.333,85.333S439.588,494.933,392.535,494.933z M477.869,353.118c-18.355-27.64-49.732-45.918-85.333-45.918
				s-66.978,18.278-85.333,45.918V102.4c0-47.053,38.281-85.333,85.333-85.333s85.333,38.281,85.333,85.333V353.118z"/>
			<path d="M392.535,349.867c-32.93,0-59.733,26.803-59.733,59.733c0,32.93,26.803,59.733,59.733,59.733
				c32.93,0,59.733-26.803,59.733-59.733C452.269,376.67,425.466,349.867,392.535,349.867z M392.535,452.267
				c-23.526,0-42.667-19.14-42.667-42.667c0-23.526,19.14-42.667,42.667-42.667c23.526,0,42.667,19.14,42.667,42.667
				C435.202,433.126,416.062,452.267,392.535,452.267z"/>
			<polygon points="76.751,412.3 17.069,389.917 17.069,447.824 			"/>
			<polygon points="276.516,293.387 26.558,230.898 17.069,236.461 17.069,260.875 226.963,322.887 			"/>
			<polygon points="146.293,370.9 17.065,330.289 17.065,371.685 95.537,401.108 			"/>
			<polygon points="170.188,93.867 17.065,185.737 17.065,216.687 226.584,93.867 			"/>
			<polygon points="17.069,93.867 17.069,165.837 137.013,93.867 			"/>
			<polygon points="206.982,334.776 17.072,278.67 17.072,312.393 164.69,358.789 164.247,360.214 			"/>
		</g>
	</g>
</g>
<g>
</g>
<g>
</g>
<g>
</g>
<g>
</g>
<g>
</g>
<g>
</g>
<g>
</g>
<g>
</g>
<g>
</g>
<g>
</g>
<g>
</g>
<g>
</g>
<g>
</g>
<g>
</g>
<g>
</g>
</svg>

<svg width="512" height="512" viewBox="0 0 512 512" fill="none" xmlns="http://www.w3.org/2000/svg">
<path d="M392.535 0C338.946 0 294.931 41.387 290.57 93.867H260.32L47.593 218.573L98.52 231.305L290.136 114.671V134.648L121.79 237.124L166.795 248.371L290.136 174.37V194.27L190.211 254.225L235.079 265.446L290.136 233.984V253.636L259.006 271.428L290.136 279.21V305.143L17.069 467.686V502.715L290.136 344.942V364.654L35.117 512H105.312L290.135 404.685V409.6C290.135 414.421 290.587 419.14 291.236 423.782L139.309 512H392.536C449.001 512 494.936 466.065 494.936 409.6V102.4C494.936 45.935 449.001 0 392.535 0ZM392.535 494.933C345.482 494.933 307.202 456.652 307.202 409.6C307.202 362.548 345.483 324.267 392.535 324.267C439.587 324.267 477.868 362.548 477.868 409.6C477.868 456.652 439.588 494.933 392.535 494.933ZM477.869 353.118C459.514 325.478 428.137 307.2 392.536 307.2C356.935 307.2 325.558 325.478 307.203 353.118V102.4C307.203 55.347 345.484 17.067 392.536 17.067C439.588 17.067 477.869 55.348 477.869 102.4V353.118Z" fill="#303030"/>
<path d="M392.535 349.867C359.605 349.867 332.802 376.67 332.802 409.6C332.802 442.53 359.605 469.333 392.535 469.333C425.465 469.333 452.268 442.53 452.268 409.6C452.269 376.67 425.466 349.867 392.535 349.867ZM392.535 452.267C369.009 452.267 349.868 433.127 349.868 409.6C349.868 386.074 369.008 366.933 392.535 366.933C416.061 366.933 435.202 386.073 435.202 409.6C435.202 433.126 416.062 452.267 392.535 452.267Z" fill="#303030"/>
<path d="M76.751 412.3L17.069 389.917V447.824L76.751 412.3Z" fill="#303030"/>
<path d="M276.516 293.387L26.558 230.898L17.069 236.461V260.875L226.963 322.887L276.516 293.387Z" fill="#303030"/>
<path d="M146.293 370.9L17.0649 330.289V371.685L95.5369 401.108L146.293 370.9Z" fill="#303030"/>
<path d="M170.188 93.867L17.0649 185.737V216.687L226.584 93.867H170.188Z" fill="#303030"/>
<path d="M17.069 93.867V165.837L137.013 93.867H17.069Z" fill="#303030"/>
<path d="M206.982 334.776L17.0719 278.67V312.393L164.69 358.789L164.247 360.214L206.982 334.776Z" fill="#303030"/>
</svg>
